Unsharped Mask/textures/untitled.CUBE
#Created by: Adobe Photoshop Export Color Lookup Plugin
TITLE "lutlut"
#LUT size
LUT_3D_SIZE 5
#data domain
#LUT data points
DOMAIN_MIN 0.000000 0.000000 0.000000
DOMAIN_MAX 0.903226 0.903226 0.903226
0.000000 0.000000 0.000000
0.076874 0.000000 0.000000
0.277222 0.000000 0.000000
0.526581 0.000000 0.000000
0.810791 0.000000 0.000000
0.000000 0.076874 0.000000
0.076874 0.076874 0.000000
0.277222 0.076874 0.000000
0.526581 0.076874 0.000000
0.810791 0.076874 0.000000
0.000000 0.277222 0.000000
0.076874 0.277222 0.000000
0.277222 0.277222 0.000000
0.526581 0.277222 0.000000
0.810791 0.277222 0.000000
0.000000 0.526581 0.000000
0.076874 0.526581 0.000000
0.277222 0.526581 0.000000
0.526581 0.526581 0.000000
0.810791 0.526581 0.000000
0.000000 0.810791 0.000000
0.076874 0.810791 0.000000
0.277222 0.810791 0.000000
0.526581 0.810791 0.000000
0.810791 0.810791 0.000000
0.000000 0.000000 0.076874
0.076874 0.000000 0.076874
0.277222 0.000000 0.076874
0.526581 0.000000 0.076874
0.810791 0.000000 0.076874
0.000000 0.076874 0.076874
0.076874 0.076874 0.076874
0.277222 0.076874 0.076874
0.526581 0.076874 0.076874
0.810791 0.076874 0.076874
0.000000 0.277222 0.076874
0.076874 0.277222 0.076874
0.277222 0.277222 0.076874
0.526581 0.277222 0.076874
0.810791 0.277222 0.076874
0.000000 0.526581 0.076874
0.076874 0.526581 0.076874
0.277222 0.526581 0.076874
0.526581 0.526581 0.076874
0.810791 0.526581 0.076874
0.000000 0.810791 0.076874
0.076874 0.810791 0.076874
0.277222 0.810791 0.076874
0.526581 0.810791 0.076874
0.810791 0.810791 0.076874
0.000000 0.000000 0.277222
0.076874 0.000000 0.277222
0.277222 0.000000 0.277222
0.526581 0.000000 0.277222
0.810791 0.000000 0.277222
0.000000 0.076874 0.277222
0.076874 0.076874 0.277222
0.277222 0.076874 0.277222
0.526581 0.076874 0.277222
0.810791 0.076874 0.277222
0.000000 0.277222 0.277222
0.076874 0.277222 0.277222
0.277222 0.277222 0.277222
0.526581 0.277222 0.277222
0.810791 0.277222 0.277222
0.000000 0.526581 0.277222
0.076874 0.526581 0.277222
0.277222 0.526581 0.277222
0.526581 0.526581 0.277222
0.810791 0.526581 0.277222
0.000000 0.810791 0.277222
0.076874 0.810791 0.277222
0.277222 0.810791 0.277222
0.526581 0.810791 0.277222
0.810791 0.810791 0.277222
0.000000 0.000000 0.526581
0.076874 0.000000 0.526581
0.277222 0.000000 0.526581
0.526581 0.000000 0.526581
0.810791 0.000000 0.526581
0.000000 0.076874 0.526581
0.076874 0.076874 0.526581
0.277222 0.076874 0.526581
0.526581 0.076874 0.526581
0.810791 0.076874 0.526581
0.000000 0.277222 0.526581
0.076874 0.277222 0.526581
0.277222 0.277222 0.526581
0.526581 0.277222 0.526581
0.810791 0.277222 0.526581
0.000000 0.526581 0.526581
0.076874 0.526581 0.526581
0.277222 0.526581 0.526581
0.526581 0.526581 0.526581
0.810791 0.526581 0.526581
0.000000 0.810791 0.526581
0.076874 0.810791 0.526581
0.277222 0.810791 0.526581
0.526581 0.810791 0.526581
0.810791 0.810791 0.526581
0.000000 0.000000 0.810791
0.076874 0.000000 0.810791
0.277222 0.000000 0.810791
0.526581 0.000000 0.810791
0.810791 0.000000 0.810791
0.000000 0.076874 0.810791
0.076874 0.076874 0.810791
0.277222 0.076874 0.810791
0.526581 0.076874 0.810791
0.810791 0.076874 0.810791
0.000000 0.277222 0.810791
0.076874 0.277222 0.810791
0.277222 0.277222 0.810791
0.526581 0.277222 0.810791
0.810791 0.277222 0.810791
0.000000 0.526581 0.810791
0.076874 0.526581 0.810791
0.277222 0.526581 0.810791
0.526581 0.526581 0.810791
0.810791 0.526581 0.810791
0.000000 0.810791 0.810791
0.076874 0.810791 0.810791
0.277222 0.810791 0.810791
0.526581 0.810791 0.810791
0.810791 0.810791 0.810791
