Unsharped Mask/textures/untitled.CUBE
#Created by: Adobe Photoshop Export Color Lookup Plugin
TITLE "lutlut"
#LUT size
LUT_3D_SIZE 8
#data domain
#LUT data points
DOMAIN_MIN 0.000000 0.000000 0.000000
DOMAIN_MAX 0.903226 0.903226 0.903226
0.000000 0.000000 0.000000
0.015961 0.000000 0.000000
0.101349 0.000000 0.000000
0.213959 0.000000 0.000000
0.344421 0.000000 0.000000
0.488739 0.000000 0.000000
0.644684 0.000000 0.000000
0.810791 0.000000 0.000000
0.000000 0.015961 0.000000
0.015961 0.015961 0.000000
0.101349 0.015961 0.000000
0.213959 0.015961 0.000000
0.344421 0.015961 0.000000
0.488739 0.015961 0.000000
0.644684 0.015961 0.000000
0.810791 0.015961 0.000000
0.000000 0.101349 0.000000
0.015961 0.101349 0.000000
0.101349 0.101349 0.000000
0.213959 0.101349 0.000000
0.344421 0.101349 0.000000
0.488739 0.101349 0.000000
0.644684 0.101349 0.000000
0.810791 0.101349 0.000000
0.000000 0.213959 0.000000
0.015961 0.213959 0.000000
0.101349 0.213959 0.000000
0.213959 0.213959 0.000000
0.344421 0.213959 0.000000
0.488739 0.213959 0.000000
0.644684 0.213959 0.000000
0.810791 0.213959 0.000000
0.000000 0.344421 0.000000
0.015961 0.344421 0.000000
0.101349 0.344421 0.000000
0.213959 0.344421 0.000000
0.344421 0.344421 0.000000
0.488739 0.344421 0.000000
0.644684 0.344421 0.000000
0.810791 0.344421 0.000000
0.000000 0.488739 0.000000
0.015961 0.488739 0.000000
0.101349 0.488739 0.000000
0.213959 0.488739 0.000000
0.344421 0.488739 0.000000
0.488739 0.488739 0.000000
0.644684 0.488739 0.000000
0.810791 0.488739 0.000000
0.000000 0.644684 0.000000
0.015961 0.644684 0.000000
0.101349 0.644684 0.000000
0.213959 0.644684 0.000000
0.344421 0.644684 0.000000
0.488739 0.644684 0.000000
0.644684 0.644684 0.000000
0.810791 0.644684 0.000000
0.000000 0.810791 0.000000
0.015961 0.810791 0.000000
0.101349 0.810791 0.000000
0.213959 0.810791 0.000000
0.344421 0.810791 0.000000
0.488739 0.810791 0.000000
0.644684 0.810791 0.000000
0.810791 0.810791 0.000000
0.000000 0.000000 0.015961
0.015961 0.000000 0.015961
0.101349 0.000000 0.015961
0.213959 0.000000 0.015961
0.344421 0.000000 0.015961
0.488739 0.000000 0.015961
0.644684 0.000000 0.015961
0.810791 0.000000 0.015961
0.000000 0.015961 0.015961
0.015961 0.015961 0.015961
0.101349 0.015961 0.015961
0.213959 0.015961 0.015961
0.344421 0.015961 0.015961
0.488739 0.015961 0.015961
0.644684 0.015961 0.015961
0.810791 0.015961 0.015961
0.000000 0.101349 0.015961
0.015961 0.101349 0.015961
0.101349 0.101349 0.015961
0.213959 0.101349 0.015961
0.344421 0.101349 0.015961
0.488739 0.101349 0.015961
0.644684 0.101349 0.015961
0.810791 0.101349 0.015961
0.000000 0.213959 0.015961
0.015961 0.213959 0.015961
0.101349 0.213959 0.015961
0.213959 0.213959 0.015961
0.344421 0.213959 0.015961
0.488739 0.213959 0.015961
0.644684 0.213959 0.015961
0.810791 0.213959 0.015961
0.000000 0.344421 0.015961
0.015961 0.344421 0.015961
0.101349 0.344421 0.015961
0.213959 0.344421 0.015961
0.344421 0.344421 0.015961
0.488739 0.344421 0.015961
0.644684 0.344421 0.015961
0.810791 0.344421 0.015961
0.000000 0.488739 0.015961
0.015961 0.488739 0.015961
0.101349 0.488739 0.015961
0.213959 0.488739 0.015961
0.344421 0.488739 0.015961
0.488739 0.488739 0.015961
0.644684 0.488739 0.015961
0.810791 0.488739 0.015961
0.000000 0.644684 0.015961
0.015961 0.644684 0.015961
0.101349 0.644684 0.015961
0.213959 0.644684 0.015961
0.344421 0.644684 0.015961
0.488739 0.644684 0.015961
0.644684 0.644684 0.015961
0.810791 0.644684 0.015961
0.000000 0.810791 0.015961
0.015961 0.810791 0.015961
0.101349 0.810791 0.015961
0.213959 0.810791 0.015961
0.344421 0.810791 0.015961
0.488739 0.810791 0.015961
0.644684 0.810791 0.015961
0.810791 0.810791 0.015961
0.000000 0.000000 0.101349
0.015961 0.000000 0.101349
0.101349 0.000000 0.101349
0.213959 0.000000 0.101349
0.344421 0.000000 0.101349
0.488739 0.000000 0.101349
0.644684 0.000000 0.101349
0.810791 0.000000 0.101349
0.000000 0.015961 0.101349
0.015961 0.015961 0.101349
0.101349 0.015961 0.101349
0.213959 0.015961 0.101349
0.344421 0.015961 0.101349
0.488739 0.015961 0.101349
0.644684 0.015961 0.101349
0.810791 0.015961 0.101349
0.000000 0.101349 0.101349
0.015961 0.101349 0.101349
0.101349 0.101349 0.101349
0.213959 0.101349 0.101349
0.344421 0.101349 0.101349
0.488739 0.101349 0.101349
0.644684 0.101349 0.101349
0.810791 0.101349 0.101349
0.000000 0.213959 0.101349
0.015961 0.213959 0.101349
0.101349 0.213959 0.101349
0.213959 0.213959 0.101349
0.344421 0.213959 0.101349
0.488739 0.213959 0.101349
0.644684 0.213959 0.101349
0.810791 0.213959 0.101349
0.000000 0.344421 0.101349
0.015961 0.344421 0.101349
0.101349 0.344421 0.101349
0.213959 0.344421 0.101349
0.344421 0.344421 0.101349
0.488739 0.344421 0.101349
0.644684 0.344421 0.101349
0.810791 0.344421 0.101349
0.000000 0.488739 0.101349
0.015961 0.488739 0.101349
0.101349 0.488739 0.101349
0.213959 0.488739 0.101349
0.344421 0.488739 0.101349
0.488739 0.488739 0.101349
0.644684 0.488739 0.101349
0.810791 0.488739 0.101349
0.000000 0.644684 0.101349
0.015961 0.644684 0.101349
0.101349 0.644684 0.101349
0.213959 0.644684 0.101349
0.344421 0.644684 0.101349
0.488739 0.644684 0.101349
0.644684 0.644684 0.101349
0.810791 0.644684 0.101349
0.000000 0.810791 0.101349
0.015961 0.810791 0.101349
0.101349 0.810791 0.101349
0.213959 0.810791 0.101349
0.344421 0.810791 0.101349
0.488739 0.810791 0.101349
0.644684 0.810791 0.101349
0.810791 0.810791 0.101349
0.000000 0.000000 0.213959
0.015961 0.000000 0.213959
0.101349 0.000000 0.213959
0.213959 0.000000 0.213959
0.344421 0.000000 0.213959
0.488739 0.000000 0.213959
0.644684 0.000000 0.213959
0.810791 0.000000 0.213959
0.000000 0.015961 0.213959
0.015961 0.015961 0.213959
0.101349 0.015961 0.213959
0.213959 0.015961 0.213959
0.344421 0.015961 0.213959
0.488739 0.015961 0.213959
0.644684 0.015961 0.213959
0.810791 0.015961 0.213959
0.000000 0.101349 0.213959
0.015961 0.101349 0.213959
0.101349 0.101349 0.213959
0.213959 0.101349 0.213959
0.344421 0.101349 0.213959
0.488739 0.101349 0.213959
0.644684 0.101349 0.213959
0.810791 0.101349 0.213959
0.000000 0.213959 0.213959
0.015961 0.213959 0.213959
0.101349 0.213959 0.213959
0.213959 0.213959 0.213959
0.344421 0.213959 0.213959
0.488739 0.213959 0.213959
0.644684 0.213959 0.213959
0.810791 0.213959 0.213959
0.000000 0.344421 0.213959
0.015961 0.344421 0.213959
0.101349 0.344421 0.213959
0.213959 0.344421 0.213959
0.344421 0.344421 0.213959
0.488739 0.344421 0.213959
0.644684 0.344421 0.213959
0.810791 0.344421 0.213959
0.000000 0.488739 0.213959
0.015961 0.488739 0.213959
0.101349 0.488739 0.213959
0.213959 0.488739 0.213959
0.344421 0.488739 0.213959
0.488739 0.488739 0.213959
0.644684 0.488739 0.213959
0.810791 0.488739 0.213959
0.000000 0.644684 0.213959
0.015961 0.644684 0.213959
0.101349 0.644684 0.213959
0.213959 0.644684 0.213959
0.344421 0.644684 0.213959
0.488739 0.644684 0.213959
0.644684 0.644684 0.213959
0.810791 0.644684 0.213959
0.000000 0.810791 0.213959
0.015961 0.810791 0.213959
0.101349 0.810791 0.213959
0.213959 0.810791 0.213959
0.344421 0.810791 0.213959
0.488739 0.810791 0.213959
0.644684 0.810791 0.213959
0.810791 0.810791 0.213959
0.000000 0.000000 0.344421
0.015961 0.000000 0.344421
0.101349 0.000000 0.344421
0.213959 0.000000 0.344421
0.344421 0.000000 0.344421
0.488739 0.000000 0.344421
0.644684 0.000000 0.344421
0.810791 0.000000 0.344421
0.000000 0.015961 0.344421
0.015961 0.015961 0.344421
0.101349 0.015961 0.344421
0.213959 0.015961 0.344421
0.344421 0.015961 0.344421
0.488739 0.015961 0.344421
0.644684 0.015961 0.344421
0.810791 0.015961 0.344421
0.000000 0.101349 0.344421
0.015961 0.101349 0.344421
0.101349 0.101349 0.344421
0.213959 0.101349 0.344421
0.344421 0.101349 0.344421
0.488739 0.101349 0.344421
0.644684 0.101349 0.344421
0.810791 0.101349 0.344421
0.000000 0.213959 0.344421
0.015961 0.213959 0.344421
0.101349 0.213959 0.344421
0.213959 0.213959 0.344421
0.344421 0.213959 0.344421
0.488739 0.213959 0.344421
0.644684 0.213959 0.344421
0.810791 0.213959 0.344421
0.000000 0.344421 0.344421
0.015961 0.344421 0.344421
0.101349 0.344421 0.344421
0.213959 0.344421 0.344421
0.344421 0.344421 0.344421
0.488739 0.344421 0.344421
0.644684 0.344421 0.344421
0.810791 0.344421 0.344421
0.000000 0.488739 0.344421
0.015961 0.488739 0.344421
0.101349 0.488739 0.344421
0.213959 0.488739 0.344421
0.344421 0.488739 0.344421
0.488739 0.488739 0.344421
0.644684 0.488739 0.344421
0.810791 0.488739 0.344421
0.000000 0.644684 0.344421
0.015961 0.644684 0.344421
0.101349 0.644684 0.344421
0.213959 0.644684 0.344421
0.344421 0.644684 0.344421
0.488739 0.644684 0.344421
0.644684 0.644684 0.344421
0.810791 0.644684 0.344421
0.000000 0.810791 0.344421
0.015961 0.810791 0.344421
0.101349 0.810791 0.344421
0.213959 0.810791 0.344421
0.344421 0.810791 0.344421
0.488739 0.810791 0.344421
0.644684 0.810791 0.344421
0.810791 0.810791 0.344421
0.000000 0.000000 0.488739
0.015961 0.000000 0.488739
0.101349 0.000000 0.488739
0.213959 0.000000 0.488739
0.344421 0.000000 0.488739
0.488739 0.000000 0.488739
0.644684 0.000000 0.488739
0.810791 0.000000 0.488739
0.000000 0.015961 0.488739
0.015961 0.015961 0.488739
0.101349 0.015961 0.488739
0.213959 0.015961 0.488739
0.344421 0.015961 0.488739
0.488739 0.015961 0.488739
0.644684 0.015961 0.488739
0.810791 0.015961 0.488739
0.000000 0.101349 0.488739
0.015961 0.101349 0.488739
0.101349 0.101349 0.488739
0.213959 0.101349 0.488739
0.344421 0.101349 0.488739
0.488739 0.101349 0.488739
0.644684 0.101349 0.488739
0.810791 0.101349 0.488739
0.000000 0.213959 0.488739
0.015961 0.213959 0.488739
0.101349 0.213959 0.488739
0.213959 0.213959 0.488739
0.344421 0.213959 0.488739
0.488739 0.213959 0.488739
0.644684 0.213959 0.488739
0.810791 0.213959 0.488739
0.000000 0.344421 0.488739
0.015961 0.344421 0.488739
0.101349 0.344421 0.488739
0.213959 0.344421 0.488739
0.344421 0.344421 0.488739
0.488739 0.344421 0.488739
0.644684 0.344421 0.488739
0.810791 0.344421 0.488739
0.000000 0.488739 0.488739
0.015961 0.488739 0.488739
0.101349 0.488739 0.488739
0.213959 0.488739 0.488739
0.344421 0.488739 0.488739
0.488739 0.488739 0.488739
0.644684 0.488739 0.488739
0.810791 0.488739 0.488739
0.000000 0.644684 0.488739
0.015961 0.644684 0.488739
0.101349 0.644684 0.488739
0.213959 0.644684 0.488739
0.344421 0.644684 0.488739
0.488739 0.644684 0.488739
0.644684 0.644684 0.488739
0.810791 0.644684 0.488739
0.000000 0.810791 0.488739
0.015961 0.810791 0.488739
0.101349 0.810791 0.488739
0.213959 0.810791 0.488739
0.344421 0.810791 0.488739
0.488739 0.810791 0.488739
0.644684 0.810791 0.488739
0.810791 0.810791 0.488739
0.000000 0.000000 0.644684
0.015961 0.000000 0.644684
0.101349 0.000000 0.644684
0.213959 0.000000 0.644684
0.344421 0.000000 0.644684
0.488739 0.000000 0.644684
0.644684 0.000000 0.644684
0.810791 0.000000 0.644684
0.000000 0.015961 0.644684
0.015961 0.015961 0.644684
0.101349 0.015961 0.644684
0.213959 0.015961 0.644684
0.344421 0.015961 0.644684
0.488739 0.015961 0.644684
0.644684 0.015961 0.644684
0.810791 0.015961 0.644684
0.000000 0.101349 0.644684
0.015961 0.101349 0.644684
0.101349 0.101349 0.644684
0.213959 0.101349 0.644684
0.344421 0.101349 0.644684
0.488739 0.101349 0.644684
0.644684 0.101349 0.644684
0.810791 0.101349 0.644684
0.000000 0.213959 0.644684
0.015961 0.213959 0.644684
0.101349 0.213959 0.644684
0.213959 0.213959 0.644684
0.344421 0.213959 0.644684
0.488739 0.213959 0.644684
0.644684 0.213959 0.644684
0.810791 0.213959 0.644684
0.000000 0.344421 0.644684
0.015961 0.344421 0.644684
0.101349 0.344421 0.644684
0.213959 0.344421 0.644684
0.344421 0.344421 0.644684
0.488739 0.344421 0.644684
0.644684 0.344421 0.644684
0.810791 0.344421 0.644684
0.000000 0.488739 0.644684
0.015961 0.488739 0.644684
0.101349 0.488739 0.644684
0.213959 0.488739 0.644684
0.344421 0.488739 0.644684
0.488739 0.488739 0.644684
0.644684 0.488739 0.644684
0.810791 0.488739 0.644684
0.000000 0.644684 0.644684
0.015961 0.644684 0.644684
0.101349 0.644684 0.644684
0.213959 0.644684 0.644684
0.344421 0.644684 0.644684
0.488739 0.644684 0.644684
0.644684 0.644684 0.644684
0.810791 0.644684 0.644684
0.000000 0.810791 0.644684
0.015961 0.810791 0.644684
0.101349 0.810791 0.644684
0.213959 0.810791 0.644684
0.344421 0.810791 0.644684
0.488739 0.810791 0.644684
0.644684 0.810791 0.644684
0.810791 0.810791 0.644684
0.000000 0.000000 0.810791
0.015961 0.000000 0.810791
0.101349 0.000000 0.810791
0.213959 0.000000 0.810791
0.344421 0.000000 0.810791
0.488739 0.000000 0.810791
0.644684 0.000000 0.810791
0.810791 0.000000 0.810791
0.000000 0.015961 0.810791
0.015961 0.015961 0.810791
0.101349 0.015961 0.810791
0.213959 0.015961 0.810791
0.344421 0.015961 0.810791
0.488739 0.015961 0.810791
0.644684 0.015961 0.810791
0.810791 0.015961 0.810791
0.000000 0.101349 0.810791
0.015961 0.101349 0.810791
0.101349 0.101349 0.810791
0.213959 0.101349 0.810791
0.344421 0.101349 0.810791
0.488739 0.101349 0.810791
0.644684 0.101349 0.810791
0.810791 0.101349 0.810791
0.000000 0.213959 0.810791
0.015961 0.213959 0.810791
0.101349 0.213959 0.810791
0.213959 0.213959 0.810791
0.344421 0.213959 0.810791
0.488739 0.213959 0.810791
0.644684 0.213959 0.810791
0.810791 0.213959 0.810791
0.000000 0.344421 0.810791
0.015961 0.344421 0.810791
0.101349 0.344421 0.810791
0.213959 0.344421 0.810791
0.344421 0.344421 0.810791
0.488739 0.344421 0.810791
0.644684 0.344421 0.810791
0.810791 0.344421 0.810791
0.000000 0.488739 0.810791
0.015961 0.488739 0.810791
0.101349 0.488739 0.810791
0.213959 0.488739 0.810791
0.344421 0.488739 0.810791
0.488739 0.488739 0.810791
0.644684 0.488739 0.810791
0.810791 0.488739 0.810791
0.000000 0.644684 0.810791
0.015961 0.644684 0.810791
0.101349 0.644684 0.810791
0.213959 0.644684 0.810791
0.344421 0.644684 0.810791
0.488739 0.644684 0.810791
0.644684 0.644684 0.810791
0.810791 0.644684 0.810791
0.000000 0.810791 0.810791
0.015961 0.810791 0.810791
0.101349 0.810791 0.810791
0.213959 0.810791 0.810791
0.344421 0.810791 0.810791
0.488739 0.810791 0.810791
0.644684 0.810791 0.810791
0.810791 0.810791 0.810791
