Unsharped Mask/textures/untitled.3DL
#Created by: Adobe Photoshop Export Color Lookup Plugin
#Description: lutlut
0 33 66 99 132 165 198 231 264 297 330 363 396 429 462 495 528 561 594 627 660 693 726 759 792 825 858 891 924 957 990 1023
0 0 0
0 0 0
0 0 0
0 0 10
0 0 65
0 0 138
0 0 221
0 0 315
0 0 415
0 0 523
0 0 635
0 0 754
0 0 876
0 0 1004
0 0 1135
0 0 1271
0 0 1410
0 0 1554
0 0 1699
0 0 1849
0 0 2001
0 0 2156
0 0 2315
0 0 2476
0 0 2640
0 0 2806
0 0 2975
0 0 3146
0 0 3320
0 0 3496
0 0 3674
0 0 3854
0 0 0
0 0 0
0 0 0
0 0 10
0 0 65
0 0 138
0 0 221
0 0 315
0 0 415
0 0 523
0 0 635
0 0 754
0 0 876
0 0 1004
0 0 1135
0 0 1271
0 0 1410
0 0 1554
0 0 1699
0 0 1849
0 0 2001
0 0 2156
0 0 2315
0 0 2476
0 0 2640
0 0 2806
0 0 2975
0 0 3146
0 0 3320
0 0 3496
0 0 3674
0 0 3854
0 0 0
0 0 0
0 0 0
0 0 10
0 0 65
0 0 138
0 0 221
0 0 315
0 0 415
0 0 523
0 0 635
0 0 754
0 0 876
0 0 1004
0 0 1135
0 0 1271
0 0 1410
0 0 1554
0 0 1699
0 0 1849
0 0 2001
0 0 2156
0 0 2315
0 0 2476
0 0 2640
0 0 2806
0 0 2975
0 0 3146
0 0 3320
0 0 3496
0 0 3674
0 0 3854
0 10 0
0 10 0
0 10 0
0 10 10
0 10 65
0 10 138
0 10 221
0 10 315
0 10 415
0 10 523
0 10 635
0 10 754
0 10 876
0 10 1004
0 10 1135
0 10 1271
0 10 1410
0 10 1554
0 10 1699
0 10 1849
0 10 2001
0 10 2156
0 10 2315
0 10 2476
0 10 2640
0 10 2806
0 10 2975
0 10 3146
0 10 3320
0 10 3496
0 10 3674
0 10 3854
0 65 0
0 65 0
0 65 0
0 65 10
0 65 65
0 65 138
0 65 221
0 65 315
0 65 415
0 65 523
0 65 635
0 65 754
0 65 876
0 65 1004
0 65 1135
0 65 1271
0 65 1410
0 65 1554
0 65 1699
0 65 1849
0 65 2001
0 65 2156
0 65 2315
0 65 2476
0 65 2640
0 65 2806
0 65 2975
0 65 3146
0 65 3320
0 65 3496
0 65 3674
0 65 3854
0 138 0
0 138 0
0 138 0
0 138 10
0 138 65
0 138 138
0 138 221
0 138 315
0 138 415
0 138 523
0 138 635
0 138 754
0 138 876
0 138 1004
0 138 1135
0 138 1271
0 138 1410
0 138 1554
0 138 1699
0 138 1849
0 138 2001
0 138 2156
0 138 2315
0 138 2476
0 138 2640
0 138 2806
0 138 2975
0 138 3146
0 138 3320
0 138 3496
0 138 3674
0 138 3854
0 221 0
0 221 0
0 221 0
0 221 10
0 221 65
0 221 138
0 221 221
0 221 315
0 221 415
0 221 523
0 221 635
0 221 754
0 221 876
0 221 1004
0 221 1135
0 221 1271
0 221 1410
0 221 1554
0 221 1699
0 221 1849
0 221 2001
0 221 2156
0 221 2315
0 221 2476
0 221 2640
0 221 2806
0 221 2975
0 221 3146
0 221 3320
0 221 3496
0 221 3674
0 221 3854
0 315 0
0 315 0
0 315 0
0 315 10
0 315 65
0 315 138
0 315 221
0 315 315
0 315 415
0 315 523
0 315 635
0 315 754
0 315 876
0 315 1004
0 315 1135
0 315 1271
0 315 1410
0 315 1554
0 315 1699
0 315 1849
0 315 2001
0 315 2156
0 315 2315
0 315 2476
0 315 2640
0 315 2806
0 315 2975
0 315 3146
0 315 3320
0 315 3496
0 315 3674
0 315 3854
0 415 0
0 415 0
0 415 0
0 415 10
0 415 65
0 415 138
0 415 221
0 415 315
0 415 415
0 415 523
0 415 635
0 415 754
0 415 876
0 415 1004
0 415 1135
0 415 1271
0 415 1410
0 415 1554
0 415 1699
0 415 1849
0 415 2001
0 415 2156
0 415 2315
0 415 2476
0 415 2640
0 415 2806
0 415 2975
0 415 3146
0 415 3320
0 415 3496
0 415 3674
0 415 3854
0 523 0
0 523 0
0 523 0
0 523 10
0 523 65
0 523 138
0 523 221
0 523 315
0 523 415
0 523 523
0 523 635
0 523 754
0 523 876
0 523 1004
0 523 1135
0 523 1271
0 523 1410
0 523 1554
0 523 1699
0 523 1849
0 523 2001
0 523 2156
0 523 2315
0 523 2476
0 523 2640
0 523 2806
0 523 2975
0 523 3146
0 523 3320
0 523 3496
0 523 3674
0 523 3854
0 635 0
0 635 0
0 635 0
0 635 10
0 635 65
0 635 138
0 635 221
0 635 315
0 635 415
0 635 523
0 635 635
0 635 754
0 635 876
0 635 1004
0 635 1135
0 635 1271
0 635 1410
0 635 1554
0 635 1699
0 635 1849
0 635 2001
0 635 2156
0 635 2315
0 635 2476
0 635 2640
0 635 2806
0 635 2975
0 635 3146
0 635 3320
0 635 3496
0 635 3674
0 635 3854
0 754 0
0 754 0
0 754 0
0 754 10
0 754 65
0 754 138
0 754 221
0 754 315
0 754 415
0 754 523
0 754 635
0 754 754
0 754 876
0 754 1004
0 754 1135
0 754 1271
0 754 1410
0 754 1554
0 754 1699
0 754 1849
0 754 2001
0 754 2156
0 754 2315
0 754 2476
0 754 2640
0 754 2806
0 754 2975
0 754 3146
0 754 3320
0 754 3496
0 754 3674
0 754 3854
0 876 0
0 876 0
0 876 0
0 876 10
0 876 65
0 876 138
0 876 221
0 876 315
0 876 415
0 876 523
0 876 635
0 876 754
0 876 876
0 876 1004
0 876 1135
0 876 1271
0 876 1410
0 876 1554
0 876 1699
0 876 1849
0 876 2001
0 876 2156
0 876 2315
0 876 2476
0 876 2640
0 876 2806
0 876 2975
0 876 3146
0 876 3320
0 876 3496
0 876 3674
0 876 3854
0 1004 0
0 1004 0
0 1004 0
0 1004 10
0 1004 65
0 1004 138
0 1004 221
0 1004 315
0 1004 415
0 1004 523
0 1004 635
0 1004 754
0 1004 876
0 1004 1004
0 1004 1135
0 1004 1271
0 1004 1410
0 1004 1554
0 1004 1699
0 1004 1849
0 1004 2001
0 1004 2156
0 1004 2315
0 1004 2476
0 1004 2640
0 1004 2806
0 1004 2975
0 1004 3146
0 1004 3320
0 1004 3496
0 1004 3674
0 1004 3854
0 1135 0
0 1135 0
0 1135 0
0 1135 10
0 1135 65
0 1135 138
0 1135 221
0 1135 315
0 1135 415
0 1135 523
0 1135 635
0 1135 754
0 1135 876
0 1135 1004
0 1135 1135
0 1135 1271
0 1135 1410
0 1135 1554
0 1135 1699
0 1135 1849
0 1135 2001
0 1135 2156
0 1135 2315
0 1135 2476
0 1135 2640
0 1135 2806
0 1135 2975
0 1135 3146
0 1135 3320
0 1135 3496
0 1135 3674
0 1135 3854
0 1271 0
0 1271 0
0 1271 0
0 1271 10
0 1271 65
0 1271 138
0 1271 221
0 1271 315
0 1271 415
0 1271 523
0 1271 635
0 1271 754
0 1271 876
0 1271 1004
0 1271 1135
0 1271 1271
0 1271 1410
0 1271 1554
0 1271 1699
0 1271 1849
0 1271 2001
0 1271 2156
0 1271 2315
0 1271 2476
0 1271 2640
0 1271 2806
0 1271 2975
0 1271 3146
0 1271 3320
0 1271 3496
0 1271 3674
0 1271 3854
0 1410 0
0 1410 0
0 1410 0
0 1410 10
0 1410 65
0 1410 138
0 1410 221
0 1410 315
0 1410 415
0 1410 523
0 1410 635
0 1410 754
0 1410 876
0 1410 1004
0 1410 1135
0 1410 1271
0 1410 1410
0 1410 1554
0 1410 1699
0 1410 1849
0 1410 2001
0 1410 2156
0 1410 2315
0 1410 2476
0 1410 2640
0 1410 2806
0 1410 2975
0 1410 3146
0 1410 3320
0 1410 3496
0 1410 3674
0 1410 3854
0 1554 0
0 1554 0
0 1554 0
0 1554 10
0 1554 65
0 1554 138
0 1554 221
0 1554 315
0 1554 415
0 1554 523
0 1554 635
0 1554 754
0 1554 876
0 1554 1004
0 1554 1135
0 1554 1271
0 1554 1410
0 1554 1554
0 1554 1699
0 1554 1849
0 1554 2001
0 1554 2156
0 1554 2315
0 1554 2476
0 1554 2640
0 1554 2806
0 1554 2975
0 1554 3146
0 1554 3320
0 1554 3496
0 1554 3674
0 1554 3854
0 1699 0
0 1699 0
0 1699 0
0 1699 10
0 1699 65
0 1699 138
0 1699 221
0 1699 315
0 1699 415
0 1699 523
0 1699 635
0 1699 754
0 1699 876
0 1699 1004
0 1699 1135
0 1699 1271
0 1699 1410
0 1699 1554
0 1699 1699
0 1699 1849
0 1699 2001
0 1699 2156
0 1699 2315
0 1699 2476
0 1699 2640
0 1699 2806
0 1699 2975
0 1699 3146
0 1699 3320
0 1699 3496
0 1699 3674
0 1699 3854
0 1849 0
0 1849 0
0 1849 0
0 1849 10
0 1849 65
0 1849 138
0 1849 221
0 1849 315
0 1849 415
0 1849 523
0 1849 635
0 1849 754
0 1849 876
0 1849 1004
0 1849 1135
0 1849 1271
0 1849 1410
0 1849 1554
0 1849 1699
0 1849 1849
0 1849 2001
0 1849 2156
0 1849 2315
0 1849 2476
0 1849 2640
0 1849 2806
0 1849 2975
0 1849 3146
0 1849 3320
0 1849 3496
0 1849 3674
0 1849 3854
0 2001 0
0 2001 0
0 2001 0
0 2001 10
0 2001 65
0 2001 138
0 2001 221
0 2001 315
0 2001 415
0 2001 523
0 2001 635
0 2001 754
0 2001 876
0 2001 1004
0 2001 1135
0 2001 1271
0 2001 1410
0 2001 1554
0 2001 1699
0 2001 1849
0 2001 2001
0 2001 2156
0 2001 2315
0 2001 2476
0 2001 2640
0 2001 2806
0 2001 2975
0 2001 3146
0 2001 3320
0 2001 3496
0 2001 3674
0 2001 3854
0 2156 0
0 2156 0
0 2156 0
0 2156 10
0 2156 65
0 2156 138
0 2156 221
0 2156 315
0 2156 415
0 2156 523
0 2156 635
0 2156 754
0 2156 876
0 2156 1004
0 2156 1135
0 2156 1271
0 2156 1410
0 2156 1554
0 2156 1699
0 2156 1849
0 2156 2001
0 2156 2156
0 2156 2315
0 2156 2476
0 2156 2640
0 2156 2806
0 2156 2975
0 2156 3146
0 2156 3320
0 2156 3496
0 2156 3674
0 2156 3854
0 2315 0
0 2315 0
0 2315 0
0 2315 10
0 2315 65
0 2315 138
0 2315 221
0 2315 315
0 2315 415
0 2315 523
0 2315 635
0 2315 754
0 2315 876
0 2315 1004
0 2315 1135
0 2315 1271
0 2315 1410
0 2315 1554
0 2315 1699
0 2315 1849
0 2315 2001
0 2315 2156
0 2315 2315
0 2315 2476
0 2315 2640
0 2315 2806
0 2315 2975
0 2315 3146
0 2315 3320
0 2315 3496
0 2315 3674
0 2315 3854
0 2476 0
0 2476 0
0 2476 0
0 2476 10
0 2476 65
0 2476 138
0 2476 221
0 2476 315
0 2476 415
0 2476 523
0 2476 635
0 2476 754
0 2476 876
0 2476 1004
0 2476 1135
0 2476 1271
0 2476 1410
0 2476 1554
0 2476 1699
0 2476 1849
0 2476 2001
0 2476 2156
0 2476 2315
0 2476 2476
0 2476 2640
0 2476 2806
0 2476 2975
0 2476 3146
0 2476 3320
0 2476 3496
0 2476 3674
0 2476 3854
0 2640 0
0 2640 0
0 2640 0
0 2640 10
0 2640 65
0 2640 138
0 2640 221
0 2640 315
0 2640 415
0 2640 523
0 2640 635
0 2640 754
0 2640 876
0 2640 1004
0 2640 1135
0 2640 1271
0 2640 1410
0 2640 1554
0 2640 1699
0 2640 1849
0 2640 2001
0 2640 2156
0 2640 2315
0 2640 2476
0 2640 2640
0 2640 2806
0 2640 2975
0 2640 3146
0 2640 3320
0 2640 3496
0 2640 3674
0 2640 3854
0 2806 0
0 2806 0
0 2806 0
0 2806 10
0 2806 65
0 2806 138
0 2806 221
0 2806 315
0 2806 415
0 2806 523
0 2806 635
0 2806 754
0 2806 876
0 2806 1004
0 2806 1135
0 2806 1271
0 2806 1410
0 2806 1554
0 2806 1699
0 2806 1849
0 2806 2001
0 2806 2156
0 2806 2315
0 2806 2476
0 2806 2640
0 2806 2806
0 2806 2975
0 2806 3146
0 2806 3320
0 2806 3496
0 2806 3674
0 2806 3854
0 2975 0
0 2975 0
0 2975 0
0 2975 10
0 2975 65
0 2975 138
0 2975 221
0 2975 315
0 2975 415
0 2975 523
0 2975 635
0 2975 754
0 2975 876
0 2975 1004
0 2975 1135
0 2975 1271
0 2975 1410
0 2975 1554
0 2975 1699
0 2975 1849
0 2975 2001
0 2975 2156
0 2975 2315
0 2975 2476
0 2975 2640
0 2975 2806
0 2975 2975
0 2975 3146
0 2975 3320
0 2975 3496
0 2975 3674
0 2975 3854
0 3146 0
0 3146 0
0 3146 0
0 3146 10
0 3146 65
0 3146 138
0 3146 221
0 3146 315
0 3146 415
0 3146 523
0 3146 635
0 3146 754
0 3146 876
0 3146 1004
0 3146 1135
0 3146 1271
0 3146 1410
0 3146 1554
0 3146 1699
0 3146 1849
0 3146 2001
0 3146 2156
0 3146 2315
0 3146 2476
0 3146 2640
0 3146 2806
0 3146 2975
0 3146 3146
0 3146 3320
0 3146 3496
0 3146 3674
0 3146 3854
0 3320 0
0 3320 0
0 3320 0
0 3320 10
