Unsharped Mask/textures/untitled.CUBE
#Created by: Adobe Photoshop Export Color Lookup Plugin
TITLE "lutlut"
#LUT size
LUT_3D_SIZE 32
#data domain
DOMAIN_MIN 0.0 0.0 0.0
DOMAIN_MAX 1.0 1.0 1.0
#LUT data points
0.000000 0.000000 0.000000
0.000000 0.000000 0.000000
0.000000 0.000000 0.000000
0.002472 0.000000 0.000000
0.015961 0.000000 0.000000
0.033630 0.000000 0.000000
0.054077 0.000000 0.000000
0.076874 0.000000 0.000000
0.101349 0.000000 0.000000
0.127625 0.000000 0.000000
0.155060 0.000000 0.000000
0.184021 0.000000 0.000000
0.213959 0.000000 0.000000
0.245209 0.000000 0.000000
0.277222 0.000000 0.000000
0.310455 0.000000 0.000000
0.344421 0.000000 0.000000
0.379425 0.000000 0.000000
0.414978 0.000000 0.000000
0.451508 0.000000 0.000000
0.488739 0.000000 0.000000
0.526581 0.000000 0.000000
0.565369 0.000000 0.000000
0.604584 0.000000 0.000000
0.644684 0.000000 0.000000
0.685181 0.000000 0.000000
0.726563 0.000000 0.000000
0.768250 0.000000 0.000000
0.810791 0.000000 0.000000
0.853607 0.000000 0.000000
0.897247 0.000000 0.000000
0.941162 0.000000 0.000000
0.000000 0.000000 0.000000
0.000000 0.000000 0.000000
0.000000 0.000000 0.000000
0.002472 0.000000 0.000000
0.015961 0.000000 0.000000
0.033630 0.000000 0.000000
0.054077 0.000000 0.000000
0.076874 0.000000 0.000000
0.101349 0.000000 0.000000
0.127625 0.000000 0.000000
0.155060 0.000000 0.000000
0.184021 0.000000 0.000000
0.213959 0.000000 0.000000
0.245209 0.000000 0.000000
0.277222 0.000000 0.000000
0.310455 0.000000 0.000000
0.344421 0.000000 0.000000
0.379425 0.000000 0.000000
0.414978 0.000000 0.000000
0.451508 0.000000 0.000000
0.488739 0.000000 0.000000
0.526581 0.000000 0.000000
0.565369 0.000000 0.000000
0.604584 0.000000 0.000000
0.644684 0.000000 0.000000
0.685181 0.000000 0.000000
0.726563 0.000000 0.000000
0.768250 0.000000 0.000000
0.810791 0.000000 0.000000
0.853607 0.000000 0.000000
0.897247 0.000000 0.000000
0.941162 0.000000 0.000000
0.000000 0.000000 0.000000
0.000000 0.000000 0.000000
0.000000 0.000000 0.000000
0.002472 0.000000 0.000000
0.015961 0.000000 0.000000
0.033630 0.000000 0.000000
0.054077 0.000000 0.000000
0.076874 0.000000 0.000000
0.101349 0.000000 0.000000
0.127625 0.000000 0.000000
0.155060 0.000000 0.000000
0.184021 0.000000 0.000000
0.213959 0.000000 0.000000
0.245209 0.000000 0.000000
0.277222 0.000000 0.000000
0.310455 0.000000 0.000000
0.344421 0.000000 0.000000
0.379425 0.000000 0.000000
0.414978 0.000000 0.000000
0.451508 0.000000 0.000000
0.488739 0.000000 0.000000
0.526581 0.000000 0.000000
0.565369 0.000000 0.000000
0.604584 0.000000 0.000000
0.644684 0.000000 0.000000
0.685181 0.000000 0.000000
0.726563 0.000000 0.000000
0.768250 0.000000 0.000000
0.810791 0.000000 0.000000
0.853607 0.000000 0.000000
0.897247 0.000000 0.000000
0.941162 0.000000 0.000000
0.000000 0.002472 0.000000
0.000000 0.002472 0.000000
0.000000 0.002472 0.000000
0.002472 0.002472 0.000000
0.015961 0.002472 0.000000
0.033630 0.002472 0.000000
0.054077 0.002472 0.000000
0.076874 0.002472 0.000000
0.101349 0.002472 0.000000
0.127625 0.002472 0.000000
0.155060 0.002472 0.000000
0.184021 0.002472 0.000000
0.213959 0.002472 0.000000
0.245209 0.002472 0.000000
0.277222 0.002472 0.000000
0.310455 0.002472 0.000000
0.344421 0.002472 0.000000
0.379425 0.002472 0.000000
0.414978 0.002472 0.000000
0.451508 0.002472 0.000000
0.488739 0.002472 0.000000
0.526581 0.002472 0.000000
0.565369 0.002472 0.000000
0.604584 0.002472 0.000000
0.644684 0.002472 0.000000
0.685181 0.002472 0.000000
0.726563 0.002472 0.000000
0.768250 0.002472 0.000000
0.810791 0.002472 0.000000
0.853607 0.002472 0.000000
0.897247 0.002472 0.000000
0.941162 0.002472 0.000000
0.000000 0.015961 0.000000
0.000000 0.015961 0.000000
0.000000 0.015961 0.000000
0.002472 0.015961 0.000000
0.015961 0.015961 0.000000
0.033630 0.015961 0.000000
0.054077 0.015961 0.000000
0.076874 0.015961 0.000000
0.101349 0.015961 0.000000
0.127625 0.015961 0.000000
0.155060 0.015961 0.000000
0.184021 0.015961 0.000000
0.213959 0.015961 0.000000
0.245209 0.015961 0.000000
0.277222 0.015961 0.000000
0.310455 0.015961 0.000000
0.344421 0.015961 0.000000
0.379425 0.015961 0.000000
0.414978 0.015961 0.000000
0.451508 0.015961 0.000000
0.488739 0.015961 0.000000
0.526581 0.015961 0.000000
0.565369 0.015961 0.000000
0.604584 0.015961 0.000000
0.644684 0.015961 0.000000
0.685181 0.015961 0.000000
0.726563 0.015961 0.000000
0.768250 0.015961 0.000000
0.810791 0.015961 0.000000
0.853607 0.015961 0.000000
0.897247 0.015961 0.000000
0.941162 0.015961 0.000000
0.000000 0.033630 0.000000
0.000000 0.033630 0.000000
0.000000 0.033630 0.000000
0.002472 0.033630 0.000000
0.015961 0.033630 0.000000
0.033630 0.033630 0.000000
0.054077 0.033630 0.000000
0.076874 0.033630 0.000000
0.101349 0.033630 0.000000
0.127625 0.033630 0.000000
0.155060 0.033630 0.000000
0.184021 0.033630 0.000000
0.213959 0.033630 0.000000
0.245209 0.033630 0.000000
0.277222 0.033630 0.000000
0.310455 0.033630 0.000000
0.344421 0.033630 0.000000
0.379425 0.033630 0.000000
0.414978 0.033630 0.000000
0.451508 0.033630 0.000000
0.488739 0.033630 0.000000
0.526581 0.033630 0.000000
0.565369 0.033630 0.000000
0.604584 0.033630 0.000000
0.644684 0.033630 0.000000
0.685181 0.033630 0.000000
0.726563 0.033630 0.000000
0.768250 0.033630 0.000000
0.810791 0.033630 0.000000
0.853607 0.033630 0.000000
0.897247 0.033630 0.000000
0.941162 0.033630 0.000000
0.000000 0.054077 0.000000
0.000000 0.054077 0.000000
0.000000 0.054077 0.000000
0.002472 0.054077 0.000000
0.015961 0.054077 0.000000
0.033630 0.054077 0.000000
0.054077 0.054077 0.000000
0.076874 0.054077 0.000000
0.101349 0.054077 0.000000
0.127625 0.054077 0.000000
0.155060 0.054077 0.000000
0.184021 0.054077 0.000000
0.213959 0.054077 0.000000
0.245209 0.054077 0.000000
0.277222 0.054077 0.000000
0.310455 0.054077 0.000000
0.344421 0.054077 0.000000
0.379425 0.054077 0.000000
0.414978 0.054077 0.000000
0.451508 0.054077 0.000000
0.488739 0.054077 0.000000
0.526581 0.054077 0.000000
0.565369 0.054077 0.000000
0.604584 0.054077 0.000000
0.644684 0.054077 0.000000
0.685181 0.054077 0.000000
0.726563 0.054077 0.000000
0.768250 0.054077 0.000000
0.810791 0.054077 0.000000
0.853607 0.054077 0.000000
0.897247 0.054077 0.000000
0.941162 0.054077 0.000000
0.000000 0.076874 0.000000
0.000000 0.076874 0.000000
0.000000 0.076874 0.000000
0.002472 0.076874 0.000000
0.015961 0.076874 0.000000
0.033630 0.076874 0.000000
0.054077 0.076874 0.000000
0.076874 0.076874 0.000000
0.101349 0.076874 0.000000
0.127625 0.076874 0.000000
0.155060 0.076874 0.000000
0.184021 0.076874 0.000000
0.213959 0.076874 0.000000
0.245209 0.076874 0.000000
0.277222 0.076874 0.000000
0.310455 0.076874 0.000000
0.344421 0.076874 0.000000
0.379425 0.076874 0.000000
0.414978 0.076874 0.000000
0.451508 0.076874 0.000000
0.488739 0.076874 0.000000
0.526581 0.076874 0.000000
0.565369 0.076874 0.000000
0.604584 0.076874 0.000000
0.644684 0.076874 0.000000
0.685181 0.076874 0.000000
0.726563 0.076874 0.000000
0.768250 0.076874 0.000000
0.810791 0.076874 0.000000
0.853607 0.076874 0.000000
0.897247 0.076874 0.000000
0.941162 0.076874 0.000000
0.000000 0.101349 0.000000
0.000000 0.101349 0.000000
0.000000 0.101349 0.000000
0.002472 0.101349 0.000000
0.015961 0.101349 0.000000
0.033630 0.101349 0.000000
0.054077 0.101349 0.000000
0.076874 0.101349 0.000000
0.101349 0.101349 0.000000
0.127625 0.101349 0.000000
0.155060 0.101349 0.000000
0.184021 0.101349 0.000000
0.213959 0.101349 0.000000
0.245209 0.101349 0.000000
0.277222 0.101349 0.000000
0.310455 0.101349 0.000000
0.344421 0.101349 0.000000
0.379425 0.101349 0.000000
0.414978 0.101349 0.000000
0.451508 0.101349 0.000000
0.488739 0.101349 0.000000
0.526581 0.101349 0.000000
0.565369 0.101349 0.000000
0.604584 0.101349 0.000000
0.644684 0.101349 0.000000
0.685181 0.101349 0.000000
0.726563 0.101349 0.000000
0.768250 0.101349 0.000000
0.810791 0.101349 0.000000
0.853607 0.101349 0.000000
0.897247 0.101349 0.000000
0.941162 0.101349 0.000000
0.000000 0.127625 0.000000
0.000000 0.127625 0.000000
0.000000 0.127625 0.000000
0.002472 0.127625 0.000000
0.015961 0.127625 0.000000
0.033630 0.127625 0.000000
0.054077 0.127625 0.000000
0.076874 0.127625 0.000000
0.101349 0.127625 0.000000
0.127625 0.127625 0.000000
0.155060 0.127625 0.000000
0.184021 0.127625 0.000000
0.213959 0.127625 0.000000
0.245209 0.127625 0.000000
0.277222 0.127625 0.000000
0.310455 0.127625 0.000000
0.344421 0.127625 0.000000
0.379425 0.127625 0.000000
0.414978 0.127625 0.000000
0.451508 0.127625 0.000000
0.488739 0.127625 0.000000
0.526581 0.127625 0.000000
0.565369 0.127625 0.000000
0.604584 0.127625 0.000000
0.644684 0.127625 0.000000
0.685181 0.127625 0.000000
0.726563 0.127625 0.000000
0.768250 0.127625 0.000000
0.810791 0.127625 0.000000
0.853607 0.127625 0.000000
0.897247 0.127625 0.000000
0.941162 0.127625 0.000000
0.000000 0.155060 0.000000
0.000000 0.155060 0.000000
0.000000 0.155060 0.000000
0.002472 0.155060 0.000000
0.015961 0.155060 0.000000
0.033630 0.155060 0.000000
0.054077 0.155060 0.000000
0.076874 0.155060 0.000000
0.101349 0.155060 0.000000
0.127625 0.155060 0.000000
0.155060 0.155060 0.000000
0.184021 0.155060 0.000000
0.213959 0.155060 0.000000
0.245209 0.155060 0.000000
0.277222 0.155060 0.000000
0.310455 0.155060 0.000000
0.344421 0.155060 0.000000
0.379425 0.155060 0.000000
0.414978 0.155060 0.000000
0.451508 0.155060 0.000000
0.488739 0.155060 0.000000
0.526581 0.155060 0.000000
0.565369 0.155060 0.000000
0.604584 0.155060 0.000000
0.644684 0.155060 0.000000
0.685181 0.155060 0.000000
0.726563 0.155060 0.000000
0.768250 0.155060 0.000000
0.810791 0.155060 0.000000
0.853607 0.155060 0.000000
0.897247 0.155060 0.000000
0.941162 0.155060 0.000000
0.000000 0.184021 0.000000
0.000000 0.184021 0.000000
0.000000 0.184021 0.000000
0.002472 0.184021 0.000000
0.015961 0.184021 0.000000
0.033630 0.184021 0.000000
0.054077 0.184021 0.000000
0.076874 0.184021 0.000000
0.101349 0.184021 0.000000
0.127625 0.184021 0.000000
0.155060 0.184021 0.000000
0.184021 0.184021 0.000000
0.213959 0.184021 0.000000
0.245209 0.184021 0.000000
0.277222 0.184021 0.000000
0.310455 0.184021 0.000000
0.344421 0.184021 0.000000
0.379425 0.184021 0.000000
0.414978 0.184021 0.000000
0.451508 0.184021 0.000000
0.488739 0.184021 0.000000
0.526581 0.184021 0.000000
0.565369 0.184021 0.000000
0.604584 0.184021 0.000000
0.644684 0.184021 0.000000
0.685181 0.184021 0.000000
0.726563 0.184021 0.000000
0.768250 0.184021 0.000000
0.810791 0.184021 0.000000
0.853607 0.184021 0.000000
0.897247 0.184021 0.000000
0.941162 0.184021 0.000000
0.000000 0.213959 0.000000
0.000000 0.213959 0.000000
0.000000 0.213959 0.000000
0.002472 0.213959 0.000000
0.015961 0.213959 0.000000
0.033630 0.213959 0.000000
0.054077 0.213959 0.000000
0.076874 0.213959 0.000000
0.101349 0.213959 0.000000
0.127625 0.213959 0.000000
0.155060 0.213959 0.000000
0.184021 0.213959 0.000000
0.213959 0.213959 0.000000
0.245209 0.213959 0.000000
0.277222 0.213959 0.000000
0.310455 0.213959 0.000000
0.344421 0.213959 0.000000
0.379425 0.213959 0.000000
0.414978 0.213959 0.000000
0.451508 0.213959 0.000000
0.488739 0.213959 0.000000
0.526581 0.213959 0.000000
0.565369 0.213959 0.000000
0.604584 0.213959 0.000000
0.644684 0.213959 0.000000
0.685181 0.213959 0.000000
0.726563 0.213959 0.000000
0.768250 0.213959 0.000000
0.810791 0.213959 0.000000
0.853607 0.213959 0.000000
0.897247 0.213959 0.000000
0.941162 0.213959 0.000000
0.000000 0.245209 0.000000
0.000000 0.245209 0.000000
0.000000 0.245209 0.000000
0.002472 0.245209 0.000000
0.015961 0.245209 0.000000
0.033630 0.245209 0.000000
0.054077 0.245209 0.000000
0.076874 0.245209 0.000000
0.101349 0.245209 0.000000
0.127625 0.245209 0.000000
0.155060 0.245209 0.000000
0.184021 0.245209 0.000000
0.213959 0.245209 0.000000
0.245209 0.245209 0.000000
0.277222 0.245209 0.000000
0.310455 0.245209 0.000000
0.344421 0.245209 0.000000
0.379425 0.245209 0.000000
0.414978 0.245209 0.000000
0.451508 0.245209 0.000000
0.488739 0.245209 0.000000
0.526581 0.245209 0.000000
0.565369 0.245209 0.000000
0.604584 0.245209 0.000000
0.644684 0.245209 0.000000
0.685181 0.245209 0.000000
0.726563 0.245209 0.000000
0.768250 0.245209 0.000000
0.810791 0.245209 0.000000
0.853607 0.245209 0.000000
0.897247 0.245209 0.000000
0.941162 0.245209 0.000000
0.000000 0.277222 0.000000
0.000000 0.277222 0.000000
0.000000 0.277222 0.000000
0.002472 0.277222 0.000000
0.015961 0.277222 0.000000
0.033630 0.277222 0.000000
0.054077 0.277222 0.000000
0.076874 0.277222 0.000000
0.101349 0.277222 0.000000
0.127625 0.277222 0.000000
0.155060 0.277222 0.000000
0.184021 0.277222 0.000000
0.213959 0.277222 0.000000
0.245209 0.277222 0.000000
0.277222 0.277222 0.000000
0.310455 0.277222 0.000000
0.344421 0.277222 0.000000
0.379425 0.277222 0.000000
0.414978 0.277222 0.000000
0.451508 0.277222 0.000000
0.488739 0.277222 0.000000
0.526581 0.277222 0.000000
0.565369 0.277222 0.000000
0.604584 0.277222 0.000000
0.644684 0.277222 0.000000
0.685181 0.277222 0.000000
0.726563 0.277222 0.000000
0.768250 0.277222 0.000000
0.810791 0.277222 0.000000
0.853607 0.277222 0.000000
0.897247 0.277222 0.000000
0.941162 0.277222 0.000000
0.000000 0.310455 0.000000
0.000000 0.310455 0.000000
0.000000 0.310455 0.000000
0.002472 0.310455 0.000000
0.015961 0.310455 0.000000
0.033630 0.310455 0.000000
0.054077 0.310455 0.000000
0.076874 0.310455 0.000000
0.101349 0.310455 0.000000
0.127625 0.310455 0.000000
0.155060 0.310455 0.000000
0.184021 0.310455 0.000000
0.213959 0.310455 0.000000
0.245209 0.310455 0.000000
0.277222 0.310455 0.000000
0.310455 0.310455 0.000000
0.344421 0.310455 0.000000
0.379425 0.310455 0.000000
0.414978 0.310455 0.000000
0.451508 0.310455 0.000000
0.488739 0.310455 0.000000
0.526581 0.310455 0.000000
0.565369 0.310455 0.000000
0.604584 0.310455 0.000000
0.644684 0.310455 0.000000
0.685181 0.310455 0.000000
0.726563 0.310455 0.000000
0.768250 0.310455 0.000000
0.810791 0.310455 0.000000
0.853607 0.310455 0.000000
0.897247 0.310455 0.000000
0.941162 0.310455 0.000000
0.000000 0.344421 0.000000
0.000000 0.344421 0.000000
0.000000 0.344421 0.000000
0.002472 0.344421 0.000000
0.015961 0.344421 0.000000
0.033630 0.344421 0.000000
0.054077 0.344421 0.000000
0.076874 0.344421 0.000000
0.101349 0.344421 0.000000
0.127625 0.344421 0.000000
0.155060 0.344421 0.000000
0.184021 0.344421 0.000000
0.213959 0.344421 0.000000
0.245209 0.344421 0.000000
0.277222 0.344421 0.000000
0.310455 0.344421 0.000000
0.344421 0.344421 0.000000
0.379425 0.344421 0.000000
0.414978 0.344421 0.000000
0.451508 0.344421 0.000000
0.488739 0.344421 0.000000
0.526581 0.344421 0.000000
0.565369 0.344421 0.000000
0.604584 0.344421 0.000000
0.644684 0.344421 0.000000
0.685181 0.344421 0.000000
0.726563 0.344421 0.000000
0.768250 0.344421 0.000000
0.810791 0.344421 0.000000
0.853607 0.344421 0.000000
0.897247 0.344421 0.000000
0.941162 0.344421 0.000000
0.000000 0.379425 0.000000
0.000000 0.379425 0.000000
0.000000 0.379425 0.000000
0.002472 0.379425 0.000000
0.015961 0.379425 0.000000
0.033630 0.379425 0.000000
0.054077 0.379425 0.000000
0.076874 0.379425 0.000000
0.101349 0.379425 0.000000
0.127625 0.379425 0.000000
0.155060 0.379425 0.000000
0.184021 0.379425 0.000000
0.213959 0.379425 0.000000
0.245209 0.379425 0.000000
0.277222 0.379425 0.000000
0.310455 0.379425 0.000000
0.344421 0.379425 0.000000
0.379425 0.379425 0.000000
0.414978 0.379425 0.000000
0.451508 0.379425 0.000000
0.488739 0.379425 0.000000
0.526581 0.379425 0.000000
0.565369 0.379425 0.000000
0.604584 0.379425 0.000000
0.644684 0.379425 0.000000
0.685181 0.379425 0.000000
0.726563 0.379425 0.000000
0.768250 0.379425 0.000000
0.810791 0.379425 0.000000
0.853607 0.379425 0.000000
0.897247 0.379425 0.000000
0.941162 0.379425 0.000000
0.000000 0.414978 0.000000
0.000000 0.414978 0.000000
0.000000 0.414978 0.000000
0.002472 0.414978 0.000000
0.015961 0.414978 0.000000
0.033630 0.414978 0.000000
0.054077 0.414978 0.000000
0.076874 0.414978 0.000000
0.101349 0.414978 0.000000
0.127625 0.414978 0.000000
0.155060 0.414978 0.000000
0.184021 0.414978 0.000000
0.213959 0.414978 0.000000
0.245209 0.414978 0.000000
0.277222 0.414978 0.000000
0.310455 0.414978 0.000000
0.344421 0.414978 0.000000
0.379425 0.414978 0.000000
0.414978 0.414978 0.000000
0.451508 0.414978 0.000000
0.488739 0.414978 0.000000
0.526581 0.414978 0.000000
0.565369 0.414978 0.000000
0.604584 0.414978 0.000000
0.644684 0.414978 0.000000
0.685181 0.414978 0.000000
0.726563 0.414978 0.000000
0.768250 0.414978 0.000000
0.810791 0.414978 0.000000
0.853607 0.414978 0.000000
0.897247 0.414978 0.000000
0.941162 0.414978 0.000000
0.000000 0.451508 0.000000
0.000000 0.451508 0.000000
0.000000 0.451508 0.000000
0.002472 0.451508 0.000000
0.015961 0.451508 0.000000
0.033630 0.451508 0.000000
0.054077 0.451508 0.000000
0.076874 0.451508 0.000000
0.101349 0.451508 0.000000
0.127625 0.451508 0.000000
0.155060 0.451508 0.000000
0.184021 0.451508 0.000000
0.213959 0.451508 0.000000
0.245209 0.451508 0.000000
0.277222 0.451508 0.000000
0.310455 0.451508 0.000000
0.344421 0.451508 0.000000
0.379425 0.451508 0.000000
0.414978 0.451508 0.000000
0.451508 0.451508 0.000000
0.488739 0.451508 0.000000
0.526581 0.451508 0.000000
0.565369 0.451508 0.000000
0.604584 0.451508 0.000000
0.644684 0.451508 0.000000
0.685181 0.451508 0.000000
0.726563 0.451508 0.000000
0.768250 0.451508 0.000000
0.810791 0.451508 0.000000
0.853607 0.451508 0.000000
0.897247 0.451508 0.000000
0.941162 0.451508 0.000000
0.000000 0.488739 0.000000
0.000000 0.488739 0.000000
0.000000 0.488739 0.000000
0.002472 0.488739 0.000000
0.015961 0.488739 0.000000
0.033630 0.488739 0.000000
0.054077 0.488739 0.000000
0.076874 0.488739 0.000000
0.101349 0.488739 0.000000
0.127625 0.488739 0.000000
0.155060 0.488739 0.000000
0.184021 0.488739 0.000000
0.213959 0.488739 0.000000
0.245209 0.488739 0.000000
0.277222 0.488739 0.000000
0.310455 0.488739 0.000000
0.344421 0.488739 0.000000
0.379425 0.488739 0.000000
0.414978 0.488739 0.000000
0.451508 0.488739 0.000000
0.488739 0.488739 0.000000
0.526581 0.488739 0.000000
0.565369 0.488739 0.000000
0.604584 0.488739 0.000000
0.644684 0.488739 0.000000
0.685181 0.488739 0.000000
0.726563 0.488739 0.000000
0.768250 0.488739 0.000000
0.810791 0.488739 0.000000
0.853607 0.488739 0.000000
0.897247 0.488739 0.000000
0.941162 0.488739 0.000000
0.000000 0.526581 0.000000
0.000000 0.526581 0.000000
0.000000 0.526581 0.000000
0.002472 0.526581 0.000000
0.015961 0.526581 0.000000
0.033630 0.526581 0.000000
0.054077 0.526581 0.000000
0.076874 0.526581 0.000000
0.101349 0.526581 0.000000
0.127625 0.526581 0.000000
0.155060 0.526581 0.000000
0.184021 0.526581 0.000000
0.213959 0.526581 0.000000
0.245209 0.526581 0.000000
0.277222 0.526581 0.000000
0.310455 0.526581 0.000000
0.344421 0.526581 0.000000
0.379425 0.526581 0.000000
0.414978 0.526581 0.000000
0.451508 0.526581 0.000000
0.488739 0.526581 0.000000
0.526581 0.526581 0.000000
0.565369 0.526581 0.000000
0.604584 0.526581 0.000000
0.644684 0.526581 0.000000
0.685181 0.526581 0.000000
0.726563 0.526581 0.000000
0.768250 0.526581 0.000000
0.810791 0.526581 0.000000
0.853607 0.526581 0.000000
0.897247 0.526581 0.000000
0.941162 0.526581 0.000000
0.000000 0.565369 0.000000
0.000000 0.565369 0.000000
0.000000 0.565369 0.000000
0.002472 0.565369 0.000000
0.015961 0.565369 0.000000
0.033630 0.565369 0.000000
0.054077 0.565369 0.000000
0.076874 0.565369 0.000000
0.101349 0.565369 0.000000
0.127625 0.565369 0.000000
0.155060 0.565369 0.000000
0.184021 0.565369 0.000000
0.213959 0.565369 0.000000
0.245209 0.565369 0.000000
0.277222 0.565369 0.000000
0.310455 0.565369 0.000000
0.344421 0.565369 0.000000
0.379425 0.565369 0.000000
0.414978 0.565369 0.000000
0.451508 0.565369 0.000000
0.488739 0.565369 0.000000
0.526581 0.565369 0.000000
0.565369 0.565369 0.000000
0.604584 0.565369 0.000000
0.644684 0.565369 0.000000
0.685181 0.565369 0.000000
0.726563 0.565369 0.000000
0.768250 0.565369 0.000000
0.810791 0.565369 0.000000
0.853607 0.565369 0.000000
0.897247 0.565369 0.000000
0.941162 0.565369 0.000000
0.000000 0.604584 0.000000
0.000000 0.604584 0.000000
0.000000 0.604584 0.000000
0.002472 0.604584 0.000000
0.015961 0.604584 0.000000
0.033630 0.604584 0.000000
0.054077 0.604584 0.000000
0.076874 0.604584 0.000000
0.101349 0.604584 0.000000
0.127625 0.604584 0.000000
0.155060 0.604584 0.000000
0.184021 0.604584 0.000000
0.213959 0.604584 0.000000
0.245209 0.604584 0.000000
0.277222 0.604584 0.000000
0.310455 0.604584 0.000000
0.344421 0.604584 0.000000
0.379425 0.604584 0.000000
0.414978 0.604584 0.000000
0.451508 0.604584 0.000000
0.488739 0.604584 0.000000
0.526581 0.604584 0.000000
0.565369 0.604584 0.000000
0.604584 0.604584 0.000000
0.644684 0.604584 0.000000
0.685181 0.604584 0.000000
0.726563 0.604584 0.000000
0.768250 0.604584 0.000000
0.810791 0.604584 0.000000
0.853607 0.604584 0.000000
0.897247 0.604584 0.000000
0.941162 0.604584 0.000000
0.000000 0.644684 0.000000
0.000000 0.644684 0.000000
0.000000 0.644684 0.000000
0.002472 0.644684 0.000000
0.015961 0.644684 0.000000
0.033630 0.644684 0.000000
0.054077 0.644684 0.000000
0.076874 0.644684 0.000000
0.101349 0.644684 0.000000
0.127625 0.644684 0.000000
0.155060 0.644684 0.000000
0.184021 0.644684 0.000000
0.213959 0.644684 0.000000
0.245209 0.644684 0.000000
0.277222 0.644684 0.000000
0.310455 0.644684 0.000000
0.344421 0.644684 0.000000
0.379425 0.644684 0.000000
0.414978 0.644684 0.000000
0.451508 0.644684 0.000000
0.488739 0.644684 0.000000
0.526581 0.644684 0.000000
0.565369 0.644684 0.000000
0.604584 0.644684 0.000000
0.644684 0.644684 0.000000
0.685181 0.644684 0.000000
0.726563 0.644684 0.000000
0.768250 0.644684 0.000000
0.810791 0.644684 0.000000
0.853607 0.644684 0.000000
0.897247 0.644684 0.000000
0.941162 0.644684 0.000000
0.000000 0.685181 0.000000
0.000000 0.685181 0.000000
0.000000 0.685181 0.000000
0.002472 0.685181 0.000000
0.015961 0.685181 0.000000
0.033630 0.685181 0.000000
0.054077 0.685181 0.000000
0.076874 0.685181 0.000000
0.101349 0.685181 0.000000
0.127625 0.685181 0.000000
0.155060 0.685181 0.000000
0.184021 0.685181 0.000000
0.213959 0.685181 0.000000
0.245209 0.685181 0.000000
0.277222 0.685181 0.000000
0.310455 0.685181 0.000000
0.344421 0.685181 0.000000
0.379425 0.685181 0.000000
0.414978 0.685181 0.000000
0.451508 0.685181 0.000000
0.488739 0.685181 0.000000
0.526581 0.685181 0.000000
0.565369 0.685181 0.000000
0.604584 0.685181 0.000000
0.644684 0.685181 0.000000
0.685181 0.685181 0.000000
0.726563 0.685181 0.000000
0.768250 0.685181 0.000000
0.810791 0.685181 0.000000
0.853607 0.685181 0.000000
0.897247 0.685181 0.000000
0.941162 0.685181 0.000000
0.000000 0.726563 0.000000
0.000000 0.726563 0.000000
0.000000 0.726563 0.000000
0.002472 0.726563 0.000000
0.015961 0.726563 0.000000
0.033630 0.726563 0.000000
0.054077 0.726563 0.000000
0.076874 0.726563 0.000000
0.101349 0.726563 0.000000
0.127625 0.726563 0.000000
0.155060 0.726563 0.000000
0.184021 0.726563 0.000000
0.213959 0.726563 0.000000
0.245209 0.726563 0.000000
0.277222 0.726563 0.000000
0.310455 0.726563 0.000000
0.344421 0.726563 0.000000
0.379425 0.726563 0.000000
0.414978 0.726563 0.000000
0.451508 0.726563 0.000000
0.488739 0.726563 0.000000
0.526581 0.726563 0.000000
0.565369 0.726563 0.000000
0.604584 0.726563 0.000000
0.644684 0.726563 0.000000
0.685181 0.726563 0.000000
0.726563 0.726563 0.000000
0.768250 0.726563 0.000000
0.810791 0.726563 0.000000
0.853607 0.726563 0.000000
0.897247 0.726563 0.000000
0.941162 0.726563 0.000000
0.000000 0.768250 0.000000
0.000000 0.768250 0.000000
0.000000 0.768250 0.000000
0.002472 0.768250 0.000000
0.015961 0.768250 0.000000
0.033630 0.768250 0.000000
0.054077 0.768250 0.000000
0.076874 0.768250 0.000000
0.101349 0.768250 0.000000
0.127625 0.768250 0.000000
0.155060 0.768250 0.000000
0.184021 0.768250 0.000000
0.213959 0.768250 0.000000
0.245209 0.768250 0.000000
0.277222 0.768250 0.000000
0.310455 0.768250 0.000000
0.344421 0.768250 0.000000
0.379425 0.768250 0.000000
